austria/municipalities/70830.svg

<?xml version="1.0" encoding="UTF-8"?>
<!DOCTYPE svg PUBLIC "-//W3C//DTD SVG 1.1//EN" "http://www.w3.org/Graphics/SVG/1.1/DTD/svg11.dtd">
<svg xmlns="http://www.w3.org/2000/svg" version="1.1" width="166px" height="192px" style="shape-rendering:geometricPrecision; text-rendering:geometricPrecision; image-rendering:optimizeQuality; fill-rule:evenodd; clip-rule:evenodd" xmlns:xlink="http://www.w3.org/1999/xlink">
<g><path style="opacity:1" fill="#110806" d="M -0.5,-0.5 C 54.8333,-0.5 110.167,-0.5 165.5,-0.5C 165.5,39.5 165.5,79.5 165.5,119.5C 157.044,159.623 132.711,183.623 92.5,191.5C 85.5,191.5 78.5,191.5 71.5,191.5C 30.9303,182.931 6.93035,158.264 -0.5,117.5C -0.5,78.1667 -0.5,38.8333 -0.5,-0.5 Z"/></g>
<g><path style="opacity:1" fill="#d63023" d="M 3.5,3.5 C 56.1667,3.5 108.833,3.5 161.5,3.5C 161.667,41.8348 161.5,80.1681 161,118.5C 155.517,150.975 137.35,172.809 106.5,184C 63.1191,194.055 30.9524,179.555 10,140.5C 6.98601,132.766 4.98601,124.766 4,116.5C 3.50001,78.8348 3.33335,41.1681 3.5,3.5 Z"/></g>
<g><path style="opacity:1" fill="#e5a41c" d="M 68.5,123.5 C 68.5,121.5 68.5,119.5 68.5,117.5C 64.2325,117.797 60.0659,117.464 56,116.5C 55.5172,117.448 55.3505,118.448 55.5,119.5C 57.1439,119.286 58.6439,119.62 60,120.5C 60.5655,123.678 61.2321,126.678 62,129.5C 61.2613,128.426 60.2613,127.759 59,127.5C 51.7011,129.534 49.0344,126.868 51,119.5C 45.2241,118.142 44.2241,119.809 48,124.5C 49.539,128.763 48.2057,131.43 44,132.5C 43.6667,134.167 43.3333,135.833 43,137.5C 41.7595,134.138 40.2595,130.971 38.5,128C 39.1854,125.14 40.8521,122.973 43.5,121.5C 41.7405,118.074 39.5738,117.741 37,120.5C 36.6667,122.167 36.3333,123.833 36,125.5C 32.2294,126.371 30.2294,128.704 30,132.5C 29.7096,130.08 29.2096,127.746 28.5,125.5C 27.5269,123.932 27.3603,122.265 28,120.5C 32.966,119.346 37.1327,116.846 40.5,113C 51.5228,107.937 62.8561,103.771 74.5,100.5C 74.5479,97.7081 73.2146,95.8747 70.5,95C 64.1701,95.059 57.8368,95.2256 51.5,95.5C 51.3002,92.1957 52.6336,89.6957 55.5,88C 53.3354,84.0344 50.502,83.5344 47,86.5C 44.9327,82.7443 45.766,79.5776 49.5,77C 47.2615,74.3859 44.5948,73.8859 41.5,75.5C 40.3861,74.277 40.2195,72.9437 41,71.5C 42.1667,70.3333 43.3333,69.1667 44.5,68C 42.9594,65.0844 41.2927,62.2511 39.5,59.5C 37.9255,58.3691 36.2588,58.2025 34.5,59C 33.5856,60.9139 32.0856,62.0806 30,62.5C 27.5263,61.4238 25.0263,60.4238 22.5,59.5C 23.067,55.6763 25.067,53.0096 28.5,51.5C 30.9567,53.2249 33.6234,53.7249 36.5,53C 37.3366,51.9887 37.67,50.8221 37.5,49.5C 29.7516,50.5841 26.5849,47.2508 28,39.5C 27.0975,38.2986 25.9308,37.4652 24.5,37C 25.5,36.3333 26.5,36.3333 27.5,37C 28.354,38.0217 29.354,38.8551 30.5,39.5C 32.9686,37.9934 35.1353,38.3268 37,40.5C 37.3333,43.1667 37.6667,45.8333 38,48.5C 40.856,51.4354 42.6894,50.9354 43.5,47C 41.8713,43.3679 42.2046,40.0346 44.5,37C 50.2451,36.7365 52.0784,39.2365 50,44.5C 44.7482,47.1927 44.0815,50.8593 48,55.5C 55.1482,62.9896 63.1482,69.3229 72,74.5C 87.1913,69.128 99.6913,60.128 109.5,47.5C 109.333,47.1667 109.167,46.8333 109,46.5C 101.703,52.0948 93.8699,52.9281 85.5,49C 83.6037,47.9354 83.437,47.1021 85,46.5C 90.1389,48.974 95.1389,48.974 100,46.5C 101.325,41.8117 99.4914,39.3117 94.5,39C 90.1667,38.6667 85.8333,38.3333 81.5,38C 79.9409,36.0042 79.2742,33.6709 79.5,31C 79.8333,29.1667 80.1667,27.3333 80.5,25.5C 83.7957,24.2347 87.129,23.0681 90.5,22C 92.8325,16.3389 96.9992,14.1722 103,15.5C 111.287,15.9036 119.12,17.9036 126.5,21.5C 129.043,26.0698 127.543,28.7365 122,29.5C 120.159,28.875 118.326,28.7083 116.5,29C 120.344,30.7892 124.344,30.9559 128.5,29.5C 130.383,29.8757 131.883,30.8757 133,32.5C 135.59,37.3489 137.924,42.3489 140,47.5C 142.042,49.604 144.542,50.7707 147.5,51C 146.833,52 146.167,53 145.5,54C 143.19,54.4966 140.857,54.6633 138.5,54.5C 138.988,62.5464 142.988,67.5464 150.5,69.5C 150.283,75.0718 147.616,77.0718 142.5,75.5C 139.556,84.9407 142.556,91.6073 151.5,95.5C 149.294,101.347 145.294,103.014 139.5,100.5C 139.5,102.833 139.5,105.167 139.5,107.5C 125.299,104.843 113.799,109.176 105,120.5C 102.667,124.167 100.333,127.833 98,131.5C 92.9567,128.973 90.1234,124.973 89.5,119.5C 83.4252,119.409 80.5919,122.409 81,128.5C 80.3333,127.833 79.6667,127.167 79,126.5C 77.8201,117.902 75.3201,117.902 71.5,126.5C 70.1451,125.812 69.1451,124.812 68.5,123.5 Z"/></g>
<g><path style="opacity:1" fill="#1d120b" d="M 62.5,118.5 C 64.1667,118.5 65.8333,118.5 67.5,118.5C 67.2155,120.415 67.5489,122.081 68.5,123.5C 69.1451,124.812 70.1451,125.812 71.5,126.5C 75.3201,117.902 77.8201,117.902 79,126.5C 79.6667,127.167 80.3333,127.833 81,128.5C 80.5919,122.409 83.4252,119.409 89.5,119.5C 90.1234,124.973 92.9567,128.973 98,131.5C 100.333,127.833 102.667,124.167 105,120.5C 113.799,109.176 125.299,104.843 139.5,107.5C 139.5,105.167 139.5,102.833 139.5,100.5C 145.294,103.014 149.294,101.347 151.5,95.5C 142.556,91.6073 139.556,84.9407 142.5,75.5C 147.616,77.0718 150.283,75.0718 150.5,69.5C 142.988,67.5464 138.988,62.5464 138.5,54.5C 140.857,54.6633 143.19,54.4966 145.5,54C 146.167,53 146.833,52 147.5,51C 144.542,50.7707 142.042,49.604 140,47.5C 137.924,42.3489 135.59,37.3489 133,32.5C 131.883,30.8757 130.383,29.8757 128.5,29.5C 124.344,30.9559 120.344,30.7892 116.5,29C 118.326,28.7083 120.159,28.875 122,29.5C 127.543,28.7365 129.043,26.0698 126.5,21.5C 119.12,17.9036 111.287,15.9036 103,15.5C 96.9992,14.1722 92.8325,16.3389 90.5,22C 87.129,23.0681 83.7957,24.2347 80.5,25.5C 80.1667,27.3333 79.8333,29.1667 79.5,31C 79.2742,33.6709 79.9409,36.0042 81.5,38C 85.8333,38.3333 90.1667,38.6667 94.5,39C 99.4914,39.3117 101.325,41.8117 100,46.5C 95.1389,48.974 90.1389,48.974 85,46.5C 83.437,47.1021 83.6037,47.9354 85.5,49C 93.8699,52.9281 101.703,52.0948 109,46.5C 109.167,46.8333 109.333,47.1667 109.5,47.5C 99.6913,60.128 87.1913,69.128 72,74.5C 63.1482,69.3229 55.1482,62.9896 48,55.5C 44.0815,50.8593 44.7482,47.1927 50,44.5C 52.0784,39.2365 50.2451,36.7365 44.5,37C 42.2046,40.0346 41.8713,43.3679 43.5,47C 42.6894,50.9354 40.856,51.4354 38,48.5C 37.6667,45.8333 37.3333,43.1667 37,40.5C 35.1353,38.3268 32.9686,37.9934 30.5,39.5C 29.354,38.8551 28.354,38.0217 27.5,37C 26.5,36.3333 25.5,36.3333 24.5,37C 25.9308,37.4652 27.0975,38.2986 28,39.5C 26.5849,47.2508 29.7516,50.5841 37.5,49.5C 37.67,50.8221 37.3366,51.9887 36.5,53C 33.6234,53.7249 30.9567,53.2249 28.5,51.5C 25.067,53.0096 23.067,55.6763 22.5,59.5C 25.0263,60.4238 27.5263,61.4238 30,62.5C 32.0856,62.0806 33.5856,60.9139 34.5,59C 36.2588,58.2025 37.9255,58.3691 39.5,59.5C 41.2927,62.2511 42.9594,65.0844 44.5,68C 43.3333,69.1667 42.1667,70.3333 41,71.5C 40.2195,72.9437 40.3861,74.277 41.5,75.5C 44.5948,73.8859 47.2615,74.3859 49.5,77C 45.766,79.5776 44.9327,82.7443 47,86.5C 50.502,83.5344 53.3354,84.0344 55.5,88C 52.6336,89.6957 51.3002,92.1957 51.5,95.5C 57.8368,95.2256 64.1701,95.059 70.5,95C 73.2146,95.8747 74.5479,97.7081 74.5,100.5C 62.8561,103.771 51.5228,107.937 40.5,113C 37.1327,116.846 32.966,119.346 28,120.5C 27.3603,122.265 27.5269,123.932 28.5,125.5C 27.8333,125.5 27.5,125.833 27.5,126.5C 24.6373,123.41 24.9706,120.577 28.5,118C 34.748,115.207 40.748,111.874 46.5,108C 54.7568,104.859 63.0902,102.026 71.5,99.5C 71.5,98.5 71.5,97.5 71.5,96.5C 68.0365,95.0899 64.7031,95.4233 61.5,97.5C 57.7638,96.5207 54.2638,96.5207 51,97.5C 50.2189,96.2713 49.7189,94.938 49.5,93.5C 50.4056,91.2525 51.7389,89.2525 53.5,87.5C 53.1131,86.2801 52.2798,85.6135 51,85.5C 49.2326,86.34 47.8993,87.6734 47,89.5C 42.282,85.1828 42.4487,81.0161 47.5,77C 45.1913,76.2438 43.1913,76.7438 41.5,78.5C 37.1788,74.6443 37.5121,71.1443 42.5,68C 41.0836,65.1651 39.417,62.4985 37.5,60C 35.8126,60.1927 34.4792,61.1927 33.5,63C 30.4642,63.6385 27.4642,63.4718 24.5,62.5C 22.9707,62.5288 21.804,63.1955 21,64.5C 20.4516,57.864 22.9516,52.6973 28.5,49C 26.9747,46.0924 25.9747,42.9257 25.5,39.5C 20.3505,37.6532 20.3505,36.3199 25.5,35.5C 29.3718,36.8402 33.3718,37.6736 37.5,38C 38.9436,41.3249 39.9436,44.8249 40.5,48.5C 40.8082,45.2501 40.9748,41.9167 41,38.5C 42.7137,36.9568 44.2137,35.2901 45.5,33.5C 44.4473,28.489 45.614,28.1557 49,32.5C 50.7153,35.2676 51.882,38.2676 52.5,41.5C 52.3333,42.5 52.1667,43.5 52,44.5C 50.108,46.0542 48.608,47.8876 47.5,50C 53.8069,59.8096 62.1402,67.3096 72.5,72.5C 83.9961,68.2551 93.9961,61.7551 102.5,53C 95.5505,54.4488 89.0505,53.2822 83,49.5C 82.5065,47.8659 82.3398,46.1992 82.5,44.5C 85.4353,44.7167 88.2687,45.3834 91,46.5C 93.9541,46.4056 94.1208,45.9056 91.5,45C 85.5354,43.8693 79.5354,42.8693 73.5,42C 62.6873,39.0312 59.0207,32.3645 62.5,22C 64.3668,21.2888 65.8668,21.7888 67,23.5C 65.8379,32.0162 69.3379,37.5162 77.5,40C 82.5462,40.8156 87.5462,41.8156 92.5,43C 94.5873,43.7922 96.4207,44.9588 98,46.5C 99.6819,45.1354 99.8486,43.6354 98.5,42C 92.0552,40.2964 85.5552,39.1297 79,38.5C 77.4548,33.9534 77.1215,29.2867 78,24.5C 81.7856,23.0933 85.6189,21.76 89.5,20.5C 90.7044,17.5853 92.7044,15.4186 95.5,14C 100.5,13.3333 105.5,13.3333 110.5,14C 114.856,16.3414 119.523,17.6748 124.5,18C 128.247,19.9872 130.081,23.1538 130,27.5C 135.185,32.5312 138.852,38.5312 141,45.5C 143.663,47.5787 146.496,49.2454 149.5,50.5C 148.024,54.8128 145.024,56.9795 140.5,57C 141.732,60.7981 143.732,64.1314 146.5,67C 148.473,67.4955 150.473,67.6621 152.5,67.5C 152.776,73.8879 149.776,77.5546 143.5,78.5C 143.178,82.747 144.011,86.747 146,90.5C 148.228,92.1134 150.728,92.78 153.5,92.5C 153.409,96.1823 152.076,99.349 149.5,102C 147.045,103.631 144.545,103.797 142,102.5C 141.503,105.146 141.336,107.813 141.5,110.5C 127.863,106.451 116.363,109.784 107,120.5C 104.167,124.833 101.333,129.167 98.5,133.5C 93.5,130.5 89.5,126.5 86.5,121.5C 83.2108,123.397 82.2108,126.063 83.5,129.5C 83,129.833 82.5,130.167 82,130.5C 78.4714,128.972 76.4714,126.306 76,122.5C 74.2816,124.202 74.115,126.035 75.5,128C 74.9747,128.692 74.3081,129.192 73.5,129.5C 68.6814,127.851 66.3481,124.518 66.5,119.5C 64.901,119.768 63.5676,119.434 62.5,118.5 Z"/></g>
<g><path style="opacity:1" fill="#1c120b" d="M 93.5,21.5 C 95.8568,21.3367 98.1902,21.5034 100.5,22C 107.153,24.0985 106.82,25.7651 99.5,27C 94.5071,28.5086 92.5071,26.6752 93.5,21.5 Z"/></g>
<g><path style="opacity:1" fill="#cf3023" d="M 95.5,22.5 C 103.426,23.5721 103.426,24.5721 95.5,25.5C 95.5,24.5 95.5,23.5 95.5,22.5 Z"/></g>
<g><path style="opacity:1" fill="#d69a1f" d="M 63.5,23.5 C 65.2391,26.7478 66.4058,30.4144 67,34.5C 68.1667,35.6667 69.3333,36.8333 70.5,38C 66.6565,37.6266 64.1565,35.4599 63,31.5C 62.2782,28.7395 62.4448,26.0728 63.5,23.5 Z"/></g>
<g><path style="opacity:1" fill="#b82e20" d="M 31.5,51.5 C 32.7082,50.218 34.0416,50.218 35.5,51.5C 34.3002,52.2916 32.9669,52.2916 31.5,51.5 Z"/></g>
<g><path style="opacity:1" fill="#fdfdfd" d="M -0.5,117.5 C 6.93035,158.264 30.9303,182.931 71.5,191.5C 47.5,191.5 23.5,191.5 -0.5,191.5C -0.5,166.833 -0.5,142.167 -0.5,117.5 Z"/></g>
<g><path style="opacity:1" fill="#0a0503" d="M 68.5,123.5 C 67.5489,122.081 67.2155,120.415 67.5,118.5C 65.8333,118.5 64.1667,118.5 62.5,118.5C 63.6964,133.229 63.6964,148.229 62.5,163.5C 58.0869,167.256 53.4202,170.589 48.5,173.5C 42.7745,169.88 37.2745,165.88 32,161.5C 31.832,152.482 31.332,143.482 30.5,134.5C 27.828,132.575 26.828,129.908 27.5,126.5C 27.5,125.833 27.8333,125.5 28.5,125.5C 29.2096,127.746 29.7096,130.08 30,132.5C 30.2294,128.704 32.2294,126.371 36,125.5C 36.3333,123.833 36.6667,122.167 37,120.5C 39.5738,117.741 41.7405,118.074 43.5,121.5C 40.8521,122.973 39.1854,125.14 38.5,128C 40.2595,130.971 41.7595,134.138 43,137.5C 43.3333,135.833 43.6667,134.167 44,132.5C 48.2057,131.43 49.539,128.763 48,124.5C 44.2241,119.809 45.2241,118.142 51,119.5C 49.0344,126.868 51.7011,129.534 59,127.5C 60.2613,127.759 61.2613,128.426 62,129.5C 61.2321,126.678 60.5655,123.678 60,120.5C 58.6439,119.62 57.1439,119.286 55.5,119.5C 55.3505,118.448 55.5172,117.448 56,116.5C 60.0659,117.464 64.2325,117.797 68.5,117.5C 68.5,119.5 68.5,121.5 68.5,123.5 Z"/></g>
<g><path style="opacity:1" fill="#fdfdfd" d="M 165.5,119.5 C 165.5,143.5 165.5,167.5 165.5,191.5C 141.167,191.5 116.833,191.5 92.5,191.5C 132.711,183.623 157.044,159.623 165.5,119.5 Z"/></g>
<g><path style="opacity:1" fill="#e3a21c" d="M 45.5,162.5 C 45.56,163.043 45.8933,163.376 46.5,163.5C 47.4986,153.188 47.8319,142.855 47.5,132.5C 48.1174,132.389 48.6174,132.056 49,131.5C 49.3333,142.167 49.6667,152.833 50,163.5C 54,160.833 58,158.167 62,155.5C 63.123,158.956 62.2896,161.79 59.5,164C 55.794,166.514 52.1273,169.014 48.5,171.5C 43.2663,168.442 38.433,164.776 34,160.5C 33.3333,158.167 33.3333,155.833 34,153.5C 37.7088,156.715 41.5421,159.715 45.5,162.5 Z"/></g>
<g><path style="opacity:1" fill="#40331c" d="M 47.5,132.5 C 47.8319,142.855 47.4986,153.188 46.5,163.5C 45.8933,163.376 45.56,163.043 45.5,162.5C 46.1667,152.5 46.8333,142.5 47.5,132.5 Z"/></g>
</svg>

<svg xmlns="http://www.w3.org/2000/svg" width="166" height="192" style="shape-rendering:geometricPrecision;text-rendering:geometricPrecision;image-rendering:optimizeQuality;fill-rule:evenodd;clip-rule:evenodd"><path style="opacity:1" fill="#110806" d="M-.5-.5h166v120c-8.456 40.123-32.789 64.123-73 72h-21c-40.57-8.569-64.57-33.236-72-74V-.5z"/><path style="opacity:1" fill="#d63023" d="M3.5 3.5h158c.167 38.335 0 76.668-.5 115-5.483 32.475-23.65 54.309-54.5 65.5-43.38 10.055-75.548-4.445-96.5-43.5a97.7 97.7 0 0 1-6-24c-.5-37.665-.667-75.332-.5-113z"/><path style="opacity:1" fill="#e5a41c" d="M68.5 123.5v-6c-4.267.297-8.434-.036-12.5-1a4.932 4.932 0 0 0-.5 3c1.644-.214 3.144.12 4.5 1a103.091 103.091 0 0 0 2 9c-.739-1.074-1.739-1.741-3-2-7.299 2.034-9.966-.632-8-8-5.776-1.358-6.776.309-3 5 1.539 4.263.206 6.93-4 8l-1 5a57.99 57.99 0 0 0-4.5-9.5c.685-2.86 2.352-5.027 5-6.5-1.76-3.426-3.926-3.759-6.5-1l-1 5c-3.77.871-5.77 3.204-6 7-.29-2.42-.79-4.754-1.5-7-.973-1.568-1.14-3.235-.5-5 4.966-1.154 9.133-3.654 12.5-7.5a231.03 231.03 0 0 1 34-12.5c.048-2.792-1.285-4.625-4-5.5-6.33.059-12.663.226-19 .5-.2-3.304 1.134-5.804 4-7.5-2.165-3.966-4.998-4.466-8.5-1.5-2.067-3.756-1.234-6.922 2.5-9.5-2.239-2.614-4.905-3.114-8-1.5-1.114-1.223-1.28-2.556-.5-4l3.5-3.5a107.86 107.86 0 0 0-5-8.5c-1.575-1.13-3.241-1.297-5-.5-.914 1.914-2.414 3.08-4.5 3.5a135.094 135.094 0 0 0-7.5-3c.567-3.824 2.567-6.49 6-8 2.457 1.725 5.123 2.225 8 1.5.837-1.011 1.17-2.178 1-3.5-7.748 1.084-10.915-2.25-9.5-10a6.975 6.975 0 0 0-3.5-2.5c1-.667 2-.667 3 0a10.76 10.76 0 0 0 3 2.5c2.469-1.507 4.635-1.173 6.5 1l1 8c2.856 2.935 4.69 2.435 5.5-1.5-1.629-3.632-1.295-6.965 1-10 5.745-.264 7.578 2.236 5.5 7.5-5.252 2.693-5.919 6.36-2 11 7.148 7.49 15.148 13.823 24 19 15.191-5.372 27.691-14.372 37.5-27l-.5-1c-7.297 5.595-15.13 6.428-23.5 2.5-1.896-1.065-2.063-1.898-.5-2.5 5.139 2.474 10.139 2.474 15 0 1.325-4.688-.509-7.188-5.5-7.5l-13-1c-1.56-1.996-2.226-4.33-2-7l1-5.5a177.366 177.366 0 0 1 10-3.5c2.332-5.661 6.5-7.828 12.5-6.5 8.287.404 16.12 2.404 23.5 6 2.543 4.57 1.043 7.236-4.5 8-1.841-.625-3.674-.792-5.5-.5 3.844 1.79 7.844 1.956 12 .5 1.883.376 3.383 1.376 4.5 3a153.98 153.98 0 0 1 7 15c2.042 2.104 4.542 3.27 7.5 3.5l-2 3c-2.31.497-4.643.663-7 .5.488 8.046 4.488 13.046 12 15-.217 5.572-2.884 7.572-8 6-2.944 9.44.056 16.107 9 20-2.206 5.847-6.206 7.514-12 5v7c-14.201-2.657-25.701 1.676-34.5 13l-7 11c-5.043-2.527-7.877-6.527-8.5-12-6.075-.091-8.908 2.909-8.5 9l-2-2c-1.18-8.598-3.68-8.598-7.5 0-1.355-.688-2.355-1.688-3-3z"/><path style="opacity:1" fill="#1d120b" d="M62.5 118.5h5c-.284 1.915.049 3.581 1 5 .645 1.312 1.645 2.312 3 3 3.82-8.598 6.32-8.598 7.5 0l2 2c-.408-6.091 2.425-9.091 8.5-9 .623 5.473 3.457 9.473 8.5 12l7-11c8.799-11.324 20.299-15.657 34.5-13v-7c5.794 2.514 9.794.847 12-5-8.944-3.893-11.944-10.56-9-20 5.116 1.572 7.783-.428 8-6-7.512-1.954-11.512-6.954-12-15 2.357.163 4.69-.003 7-.5l2-3c-2.958-.23-5.458-1.396-7.5-3.5a153.98 153.98 0 0 0-7-15c-1.117-1.624-2.617-2.624-4.5-3-4.156 1.456-8.156 1.29-12-.5 1.826-.292 3.659-.125 5.5.5 5.543-.764 7.043-3.43 4.5-8-7.38-3.596-15.213-5.596-23.5-6-6-1.328-10.168.839-12.5 6.5a177.366 177.366 0 0 0-10 3.5l-1 5.5c-.226 2.67.44 5.004 2 7l13 1c4.991.312 6.825 2.812 5.5 7.5-4.861 2.474-9.861 2.474-15 0-1.563.602-1.396 1.435.5 2.5 8.37 3.928 16.203 3.095 23.5-2.5l.5 1c-9.809 12.628-22.309 21.628-37.5 27-8.852-5.177-16.852-11.51-24-19-3.919-4.64-3.252-8.307 2-11 2.078-5.264.245-7.764-5.5-7.5-2.295 3.035-2.629 6.368-1 10-.81 3.935-2.644 4.435-5.5 1.5l-1-8c-1.865-2.173-4.031-2.507-6.5-1a10.76 10.76 0 0 1-3-2.5c-1-.667-2-.667-3 0a6.975 6.975 0 0 1 3.5 2.5c-1.415 7.75 1.752 11.084 9.5 10 .17 1.322-.163 2.489-1 3.5-2.877.725-5.543.225-8-1.5-3.433 1.51-5.433 4.176-6 8 2.526.924 5.026 1.924 7.5 3 2.086-.42 3.586-1.586 4.5-3.5 1.759-.797 3.425-.63 5 .5a107.86 107.86 0 0 1 5 8.5L41 71.5c-.78 1.444-.614 2.777.5 4 3.095-1.614 5.761-1.114 8 1.5-3.734 2.578-4.567 5.744-2.5 9.5 3.502-2.966 6.335-2.466 8.5 1.5-2.866 1.696-4.2 4.196-4 7.5 6.337-.274 12.67-.441 19-.5 2.715.875 4.048 2.708 4 5.5a231.03 231.03 0 0 0-34 12.5c-3.367 3.846-7.534 6.346-12.5 7.5-.64 1.765-.473 3.432.5 5-.667 0-1 .333-1 1-2.863-3.09-2.53-5.923 1-8.5a119.405 119.405 0 0 0 18-10 368.147 368.147 0 0 1 25-8.5v-3c-3.463-1.41-6.797-1.077-10 1-3.736-.98-7.236-.98-10.5 0a10.253 10.253 0 0 1-1.5-4c.906-2.248 2.239-4.248 4-6-.387-1.22-1.22-1.886-2.5-2-1.767.84-3.1 2.173-4 4-4.718-4.317-4.551-8.484.5-12.5-2.309-.756-4.309-.256-6 1.5-4.321-3.856-3.988-7.356 1-10.5a49.328 49.328 0 0 0-5-8c-1.687.193-3.02 1.193-4 3-3.036.639-6.036.472-9-.5-1.53.029-2.696.696-3.5 2-.548-6.636 1.952-11.803 7.5-15.5-1.525-2.908-2.525-6.074-3-9.5-5.15-1.847-5.15-3.18 0-4a48.132 48.132 0 0 0 12 2.5 42.05 42.05 0 0 1 3 10.5c.308-3.25.475-6.583.5-10a31.325 31.325 0 0 0 4.5-5c-1.053-5.011.114-5.344 3.5-1a26.318 26.318 0 0 1 3.5 9l-.5 3c-1.892 1.554-3.392 3.388-4.5 5.5 6.307 9.81 14.64 17.31 25 22.5 11.496-4.245 21.496-10.745 30-19.5-6.95 1.449-13.45.282-19.5-3.5-.493-1.634-.66-3.3-.5-5 2.935.217 5.769.883 8.5 2 2.954-.094 3.12-.594.5-1.5a411.95 411.95 0 0 0-18-3c-10.813-2.969-14.48-9.636-11-20 1.867-.711 3.367-.211 4.5 1.5-1.162 8.516 2.338 14.016 10.5 16.5a205.464 205.464 0 0 1 15 3 15.83 15.83 0 0 1 5.5 3.5c1.682-1.365 1.849-2.865.5-4.5A121.735 121.735 0 0 0 79 38.5c-1.545-4.547-1.879-9.213-1-14a290.834 290.834 0 0 1 11.5-4c1.204-2.915 3.204-5.081 6-6.5 5-.667 10-.667 15 0 4.356 2.341 9.023 3.675 14 4 3.747 1.987 5.581 5.154 5.5 9.5 5.185 5.031 8.852 11.031 11 18 2.663 2.079 5.496 3.745 8.5 5-1.476 4.313-4.476 6.48-9 6.5a25.587 25.587 0 0 0 6 10c1.973.496 3.973.662 6 .5.276 6.388-2.724 10.055-9 11-.322 4.247.511 8.247 2.5 12 2.228 1.613 4.728 2.28 7.5 2-.091 3.682-1.424 6.849-4 9.5-2.455 1.631-4.955 1.797-7.5.5a32.462 32.462 0 0 0-.5 8c-13.637-4.049-25.137-.716-34.5 10l-8.5 13c-5-3-9-7-12-12-3.29 1.897-4.29 4.563-3 8l-1.5 1c-3.529-1.528-5.529-4.194-6-8-1.718 1.702-1.885 3.535-.5 5.5a4.458 4.458 0 0 1-2 1.5c-4.819-1.649-7.152-4.982-7-10-1.599.268-2.932-.066-4-1z"/><path style="opacity:1" fill="#1c120b" d="M93.5 21.5c2.357-.163 4.69.003 7 .5 6.653 2.099 6.32 3.765-1 5-4.993 1.509-6.993-.325-6-5.5z"/><path style="opacity:1" fill="#cf3023" d="M95.5 22.5c7.926 1.072 7.926 2.072 0 3v-3z"/><path style="opacity:1" fill="#d69a1f" d="M63.5 23.5c1.74 3.248 2.906 6.914 3.5 11l3.5 3.5c-3.844-.373-6.344-2.54-7.5-6.5-.722-2.76-.555-5.427.5-8z"/><path style="opacity:1" fill="#b82e20" d="M31.5 51.5c1.208-1.282 2.542-1.282 4 0-1.2.792-2.533.792-4 0z"/><path style="opacity:1" fill="#fdfdfd" d="M-.5 117.5c7.43 40.764 31.43 65.431 72 74h-72v-74z"/><path style="opacity:1" fill="#0a0503" d="M68.5 123.5c-.951-1.419-1.284-3.085-1-5h-5c1.196 14.729 1.196 29.729 0 45a100.622 100.622 0 0 1-14 10 157.851 157.851 0 0 1-16.5-12 366.68 366.68 0 0 0-1.5-27c-2.672-1.925-3.672-4.592-3-8 0-.667.333-1 1-1 .71 2.246 1.21 4.58 1.5 7 .23-3.796 2.23-6.129 6-7l1-5c2.574-2.759 4.74-2.426 6.5 1-2.648 1.473-4.315 3.64-5 6.5a57.99 57.99 0 0 1 4.5 9.5l1-5c4.206-1.07 5.539-3.737 4-8-3.776-4.691-2.776-6.358 3-5-1.966 7.368.701 10.034 8 8 1.261.259 2.261.926 3 2a103.091 103.091 0 0 1-2-9c-1.356-.88-2.856-1.214-4.5-1a4.932 4.932 0 0 1 .5-3c4.066.964 8.233 1.297 12.5 1v6z"/><path style="opacity:1" fill="#fdfdfd" d="M165.5 119.5v72h-73c40.211-7.877 64.544-31.877 73-72z"/><path style="opacity:1" fill="#e3a21c" d="M45.5 162.5c.06.543.393.876 1 1a241.136 241.136 0 0 0 1-31c.617-.111 1.117-.444 1.5-1l1 32 12-8c1.123 3.456.29 6.29-2.5 8.5a2786.864 2786.864 0 0 0-11 7.5 76.196 76.196 0 0 1-14.5-11 12.5 12.5 0 0 1 0-7 144.525 144.525 0 0 0 11.5 9z"/><path style="opacity:1" fill="#40331c" d="M47.5 132.5a241.136 241.136 0 0 1-1 31c-.607-.124-.94-.457-1-1l2-30z"/></svg>
